svg/format_header_2.svg

<svg xmlns="http://www.w3.org/2000/svg" viewBox="0 0 24 24"><path d="M3 4h2v6h4V4h2v14H9v-6H5v6H3zm18 14h-6a2 2 0 0 1-2-2c0-.53.2-1 .54-1.36l4.87-5.23c.37-.36.59-.86.59-1.41a2 2 0 0 0-2-2 2 2 0 0 0-2 2h-2a4 4 0 0 1 4-4 4 4 0 0 1 4 4c0 1.1-.45 2.1-1.17 2.83L15 16h6z"/></svg>

<?xml version="1.0" encoding="UTF-8"?><!DOCTYPE svg PUBLIC "-//W3C//DTD SVG 1.1//EN" "http://www.w3.org/Graphics/SVG/1.1/DTD/svg11.dtd"><svg xmlns="http://www.w3.org/2000/svg" xmlns:xlink="http://www.w3.org/1999/xlink" version="1.1" id="mdi-format-header-2" width="24" height="24" viewBox="0 0 24 24"><path d="M3,4H5V10H9V4H11V18H9V12H5V18H3V4M21,18H15A2,2 0 0,1 13,16C13,15.47 13.2,15 13.54,14.64L18.41,9.41C18.78,9.05 19,8.55 19,8A2,2 0 0,0 17,6A2,2 0 0,0 15,8H13A4,4 0 0,1 17,4A4,4 0 0,1 21,8C21,9.1 20.55,10.1 19.83,10.83L15,16H21V18Z" /></svg>
